Adwaita++-Dark/actions/16/playlist.svg

<svg fill="none" height="16" viewBox="0 0 16 16" width="16" xmlns="http://www.w3.org/2000/svg" xmlns:xlink="http://www.w3.org/1999/xlink">
  <clipPath id="clip0">
    <path d="m0 0h16v16h-16z"/>
  </clipPath>
  <g clip-path="url(#clip0)" fill="#e6ddff">
    <path d="m15.3571 4-5.78567.00376v5.26193c-.20572-.07712-.41143-.12176-.64286-.12176-1.06508 0-1.92857.86327-1.92857 1.92807 0 1.0647.86349 1.928 1.92857 1.928 1.06509 0 1.92853-.8633 1.92853-1.928v-4.49877h3.8572v2.6912c-.2057-.07712-.4114-.12301-.6429-.12301-1.0651 0-1.9285.86328-1.9285 1.92808 0 1.0647.8634 1.928 1.9285 1.928s1.9286-.8633 1.9286-1.928v-7.0695z"/>
    <path d="m0 3h8v2h-8z"/>
    <path d="m0 6h8v2h-8z"/>
    <path d="m0 9h6v2h-6z"/>
    <path d="m0 12h6v2h-6z"/>
  </g>
</svg>

<svg xmlns="http://www.w3.org/2000/svg" fill="none" width="16" height="16" viewBox="0 0 16 16">
 <g clip-path="url(#clip0)">
  <path fill="#E6DDFF" d="M15.3571 4L9.57143 4.00376V9.26569C9.36571 9.18857 9.16 9.14393 8.92857 9.14393C7.86349 9.14393 7 10.0072 7 11.072C7 12.1367 7.86349 13 8.92857 13C9.99366 13 10.8571 12.1367 10.8571 11.072V6.57323H14.7143V9.26443C14.5086 9.18731 14.3029 9.14142 14.0714 9.14142C13.0063 9.14142 12.1429 10.0047 12.1429 11.0695C12.1429 12.1342 13.0063 12.9975 14.0714 12.9975C15.1365 12.9975 16 12.1342 16 11.0695V4H15.3571Z"/>
  <rect fill="#E6DDFF" width="8" height="2" y="3"/>
  <rect fill="#E6DDFF" width="8" height="2" y="6"/>
  <rect fill="#E6DDFF" width="6" height="2" y="9"/>
  <rect fill="#E6DDFF" width="6" height="2" y="12"/>
 </g>
 <defs>
  <clipPath id="clip0">
   <rect fill="#fff" width="16" height="16"/>
  </clipPath>
 </defs>
</svg>
